boxicons/svg/solid/bxs-keyboard.svg

<svg xmlns="http://www.w3.org/2000/svg" width="24" height="24" viewBox="0 0 24 24"><path d="M21 5H3a2 2 0 0 0-2 2v10a2 2 0 0 0 2 2h18a2 2 0 0 0 2-2V7a2 2 0 0 0-2-2zm-8 2h2v2h-2V7zm0 4h2v2h-2v-2zM9 7h2v2H9V7zm0 4h2v2H9v-2zM5 7h2v2H5V7zm0 4h2v2H5v-2zm12 6H7v-2h10v2zm2-4h-2v-2h2v2zm0-4h-2V7h2v2z"/></svg>

<svg xmlns="http://www.w3.org/2000/svg" width="24" height="24" viewBox="0 0 24 24"><path d="M21,5H3C1.896,5,1,5.896,1,7v10c0,1.104,0.896,2,2,2h18c1.104,0,2-0.896,2-2V7C23,5.896,22.104,5,21,5z M13,7h2v2h-2V7z M13,11h2v2h-2V11z M9,7h2v2H9V7z M9,11h2v2H9V11z M5,7h2v2H5V7z M5,11h2v2H5V11z M17,17H7v-2h10V17z M19,13h-2v-2h2V13z M19,9h-2 V7h2V9z"/></svg>
